Numix-Light/16/status/indicator-keyboard-In.svg

<?xml version="1.0" encoding="UTF-8" standalone="no"?>
<svg
   xmlns:dc="http://purl.org/dc/elements/1.1/"
   xmlns:cc="http://creativecommons.org/ns#"
   xmlns:rdf="http://www.w3.org/1999/02/22-rdf-syntax-ns#"
   xmlns:svg="http://www.w3.org/2000/svg"
   xmlns="http://www.w3.org/2000/svg"
   xmlns:sodipodi="http://sodipodi.sourceforge.net/DTD/sodipodi-0.dtd"
   xmlns:inkscape="http://www.inkscape.org/namespaces/inkscape"
   viewBox="0 0 16 16"
   id="svg2"
   version="1.1"
   inkscape:version="0.91 r13725"
   sodipodi:docname="indicator-keyboard-In.svg">
  <metadata
     id="metadata13">
    <rdf:RDF>
      <cc:Work
         rdf:about="">
        <dc:format>image/svg+xml</dc:format>
        <dc:type
           rdf:resource="http://purl.org/dc/dcmitype/StillImage" />
      </cc:Work>
    </rdf:RDF>
  </metadata>
  <defs
     id="defs11" />
  <sodipodi:namedview
     pagecolor="#ffffff"
     bordercolor="#666666"
     borderopacity="1"
     objecttolerance="10"
     gridtolerance="10"
     guidetolerance="10"
     inkscape:pageopacity="0"
     inkscape:pageshadow="2"
     inkscape:window-width="640"
     inkscape:window-height="480"
     id="namedview9"
     showgrid="false"
     inkscape:zoom="14.75"
     inkscape:cx="8"
     inkscape:cy="8"
     inkscape:window-x="65"
     inkscape:window-y="24"
     inkscape:window-maximized="0"
     inkscape:current-layer="svg2" />
  <path
     style="fill:#353535;fill-opacity:1"
     d="M 1.5996094 0 C 0.71320937 2.9605947e-16 0 0.71320937 0 1.5996094 L 0 14.400391 C 2.9605947e-16 15.286791 0.71320937 16 1.5996094 16 L 14.400391 16 C 15.286791 16 16 15.286791 16 14.400391 L 16 1.5996094 C 16 0.71320937 15.286791 0 14.400391 0 L 1.5996094 0 z M 5.0878906 4.8808594 L 5.7011719 4.8808594 L 5.7011719 11.119141 L 5.0878906 11.119141 L 5.0878906 4.8808594 z M 9.0664062 6.375 C 9.4204063 6.375 9.7152187 6.4272969 9.9492188 6.5292969 C 10.189219 6.6312969 10.377625 6.77675 10.515625 6.96875 C 10.659625 7.15475 10.762266 7.3805312 10.822266 7.6445312 C 10.882266 7.9085313 10.912109 8.1995781 10.912109 8.5175781 L 10.912109 11.119141 L 10.326172 11.119141 L 10.326172 8.7070312 C 10.326172 8.3770313 10.301906 8.0971406 10.253906 7.8691406 C 10.211906 7.6411406 10.137297 7.4545469 10.029297 7.3105469 C 9.9272967 7.1665469 9.7892344 7.0658594 9.6152344 7.0058594 C 9.4472344 6.9398594 9.2345625 6.90625 8.9765625 6.90625 C 8.7005625 6.90625 8.4598594 6.9211719 8.2558594 6.9511719 C 8.0578594 6.9811719 7.9291406 7.0092031 7.8691406 7.0332031 L 7.8691406 11.119141 L 7.2851562 11.119141 L 7.2851562 6.6269531 C 7.4591563 6.5789531 7.6923281 6.5248438 7.9863281 6.4648438 C 8.2803281 6.4048438 8.6404063 6.375 9.0664062 6.375 z "
     id="path4" />
</svg>

<svg xmlns="http://www.w3.org/2000/svg" viewBox="0 0 16 16">
 <path d="m 1.6 0 c -0.886 0 -1.6 0.713 -1.6 1.6 l 0 12.801 c 0 0.886 0.713 1.6 1.6 1.6 l 12.801 0 c 0.886 0 1.6 -0.713 1.6 -1.6 l 0 -12.801 c 0 -0.886 -0.713 -1.6 -1.6 -1.6 l -12.801 0 z m 3.488 4.881 l 0.613 0 l 0 6.238 l -0.613 0 l 0 -6.238 z m 3.979 1.494 c 0.354 0 0.649 0.052 0.883 0.154 c 0.24 0.102 0.428 0.247 0.566 0.439 c 0.144 0.186 0.247 0.412 0.307 0.676 c 0.06 0.264 0.09 0.555 0.09 0.873 l 0 2.602 l -0.586 0 l 0 -2.412 c 0 -0.33 -0.024 -0.61 -0.072 -0.838 c -0.042 -0.228 -0.117 -0.415 -0.225 -0.559 c -0.102 -0.144 -0.24 -0.245 -0.414 -0.305 c -0.168 -0.066 -0.381 -0.1 -0.639 -0.1 c -0.276 0 -0.517 0.015 -0.721 0.045 c -0.198 0.03 -0.327 0.058 -0.387 0.082 l 0 4.086 l -0.584 0 l 0 -4.492 c 0.174 -0.048 0.407 -0.102 0.701 -0.162 c 0.294 -0.06 0.654 -0.09 1.08 -0.09 z" style="fill:#353535;fill-opacity:1"/>
</svg>
